X:875
T:Xiraldilla (CT 381)
R:Xiraldilla
C:Tradicional
S:Música Tradicional Asturiana, (C) Tello & Tito. Asturies, 2001.
S:http://pagina.de/MusTradAst <telloytito@asturies.org>
N:Xiraldilla, transcrita en Uviéu
A:Asturies
O:Uviéu
Z:Cancioneru de Torner 381
M:3/8
L:1/8
Q:3/8=88
K:G
|B2 c|dee|edc|B2 z|
B2 c|dee|e2 d|
B2 c|dee|e2 d|edc|B3|
ABc|e2 d|edc|B3|
ABc|e2 d|edc|B2 z||
W:Eso no, señor médico, no,
W:que no es esa la vena
W:la que a mi me da pena,
W:señor dotor;
W:más abajito
W:tengo el dolor,
W:que me da al lado
W:del corazón
W:

